melody-of-light/img/icons/filter.svg

<svg width="20" height="20" viewBox="0 0 20 20" fill="none" xmlns="http://www.w3.org/2000/svg">
<path d="M15.1786 3.33325H4.82169C3.99978 3.33325 3.3335 3.99954 3.3335 4.82145C3.3335 5.29511 3.50294 5.75315 3.81119 6.11279L6.17298 8.86821C7.20866 10.0765 7.77794 11.6154 7.77794 13.2068V14.9999C7.77794 15.9204 8.52413 16.6666 9.44461 16.6666H10.5557C11.4762 16.6666 12.2224 15.9204 12.2224 14.9999V13.2068C12.2224 11.6154 12.7917 10.0765 13.8273 8.86821L16.1891 6.11279C16.4974 5.75315 16.6668 5.29511 16.6668 4.82145C16.6668 3.99954 16.0005 3.33325 15.1786 3.33325Z" stroke="#93939F" stroke-width="2"/>
</svg>

<svg width="20" height="20" fill="none" xmlns="http://www.w3.org/2000/svg"><path d="M15.179 3.333H4.822a1.49 1.49 0 00-1.489 1.488c0 .474.17.932.478 1.292l2.362 2.755a6.667 6.667 0 011.605 4.339V15c0 .92.746 1.667 1.667 1.667h1.11c.921 0 1.667-.747 1.667-1.667v-1.793c0-1.592.57-3.13 1.605-4.339l2.362-2.755c.308-.36.478-.818.478-1.292 0-.821-.667-1.488-1.488-1.488z" stroke="#93939F" stroke-width="2"/></svg>
